src/scalable/mimetypes/text-x-c++hdr.svg

<?xml version="1.0" encoding="UTF-8" standalone="no"?>
<svg
   xmlns:dc="http://purl.org/dc/elements/1.1/"
   xmlns:cc="http://creativecommons.org/ns#"
   xmlns:rdf="http://www.w3.org/1999/02/22-rdf-syntax-ns#"
   xmlns:svg="http://www.w3.org/2000/svg"
   xmlns="http://www.w3.org/2000/svg"
   xmlns:xlink="http://www.w3.org/1999/xlink"
   xmlns:sodipodi="http://sodipodi.sourceforge.net/DTD/sodipodi-0.dtd"
   xmlns:inkscape="http://www.inkscape.org/namespaces/inkscape"
   width="48px"
   height="48px"
   viewBox="0 0 48 48"
   version="1.1"
   id="svg19"
   sodipodi:docname="text-x-c++hdr.svg"
   inkscape:version="0.92.2 2405546, 2018-03-11">
  <metadata
     id="metadata23">
    <rdf:RDF>
      <cc:Work
         rdf:about="">
        <dc:format>image/svg+xml</dc:format>
        <dc:type
           rdf:resource="http://purl.org/dc/dcmitype/StillImage" />
      </cc:Work>
    </rdf:RDF>
  </metadata>
  <sodipodi:namedview
     pagecolor="#ffffff"
     bordercolor="#666666"
     borderopacity="1"
     objecttolerance="10"
     gridtolerance="10"
     guidetolerance="10"
     inkscape:pageopacity="0"
     inkscape:pageshadow="2"
     inkscape:window-width="730"
     inkscape:window-height="480"
     id="namedview21"
     showgrid="false"
     inkscape:zoom="4.9166667"
     inkscape:cx="24"
     inkscape:cy="24"
     inkscape:window-x="0"
     inkscape:window-y="29"
     inkscape:window-maximized="0"
     inkscape:current-layer="svg19" />
  <!-- Generator: Sketch 41.2 (35397) - http://www.bohemiancoding.com/sketch -->
  <title
     id="title2">text-x-c++hdr</title>
  <desc
     id="desc4">Created with Sketch.</desc>
  <g
     id="g829">
    <rect
       rx="2"
       ry="1.9047618"
       y="4"
       x="6"
       height="40"
       width="36"
       id="rect834"
       style="opacity:1;fill:#8bc34a;fill-opacity:1;stroke:none;stroke-width:0.92582005;stroke-linecap:round;stroke-linejoin:round;stroke-miterlimit:4;stroke-dasharray:none;stroke-opacity:0.05882353;paint-order:markers stroke fill" />
    <path
       inkscape:connector-curvature="0"
       id="rect866"
       d="M 42,17.242188 A 40,40 0 0 1 23.494141,44 H 40 c 1.108,0 2,-0.849059 2,-1.904297 z"
       style="opacity:0.15;fill:url(#linearGradient877);fill-opacity:1;stroke:none;stroke-width:0.92582005;stroke-linecap:round;stroke-linejoin:round;stroke-miterlimit:4;stroke-dasharray:none;stroke-opacity:0.05882353;paint-order:markers stroke fill" />
  </g>
  <defs
     id="defs11">
    <linearGradient
       inkscape:collect="always"
       xlink:href="#linearGradient875"
       id="linearGradient877"
       x1="32.74707"
       y1="44"
       x2="32.74707"
       y2="17.242188"
       gradientUnits="userSpaceOnUse" />
    <linearGradient
       inkscape:collect="always"
       id="linearGradient875">
      <stop
         style="stop-color:#000000;stop-opacity:1;"
         offset="0"
         id="stop871" />
      <stop
         style="stop-color:#000000;stop-opacity:0;"
         offset="1"
         id="stop873" />
    </linearGradient>
  </defs>
  <g
     id="Page-1"
     stroke="none"
     stroke-width="1"
     fill="none"
     fill-rule="evenodd">
    <g
       id="text-x-c++hdr">
      <path
         d="M11.3242188,31.2197266 C10.9609357,31.2197266 10.6474623,31.1025402 10.3837891,30.8681641 C10.1201159,30.6337879 9.98828125,30.3056662 9.98828125,29.8837891 C9.98828125,29.5263654 10.1142566,29.2187513 10.3662109,28.9609375 C10.6181653,28.7031237 10.9287091,28.5742188 11.2978516,28.5742188 C11.666994,28.5742188 11.9819323,28.7016589 12.2426758,28.956543 C12.5034193,29.2114271 12.6337891,29.520506 12.6337891,29.8837891 C12.6337891,30.2998068 12.5034193,30.6264637 12.2426758,30.8637695 C11.9819323,31.1010754 11.675783,31.2197266 11.3242188,31.2197266 Z M17.7138672,19.3544922 L17.7138672,22.9140625 C18.0185562,22.5624982 18.3159165,22.2841807 18.605957,22.0791016 C18.8959975,21.8740224 19.2167951,21.7202154 19.5683594,21.6176758 C19.9199236,21.5151362 20.2978495,21.4638672 20.7021484,21.4638672 C21.3115265,21.4638672 21.8520484,21.5927721 22.3237305,21.8505859 C22.7954125,22.1083997 23.1660143,22.483396 23.4355469,22.9755859 C23.6054696,23.2626967 23.7197263,23.5834943 23.7783203,23.9379883 C23.8369144,24.2924822 23.8662109,24.7011696 23.8662109,25.1640625 L23.8662109,29.7607422 C23.8662109,30.2412133 23.7563488,30.604491 23.5366211,30.8505859 C23.3168934,31.0966809 23.0253924,31.2197266 22.6621094,31.2197266 C21.8710898,31.2197266 21.4755859,30.7334033 21.4755859,29.7607422 L21.4755859,25.7089844 C21.4755859,24.9414024 21.3613293,24.3510763 21.1328125,23.9379883 C20.9042957,23.5249003 20.4707063,23.3183594 19.8320312,23.3183594 C19.4042947,23.3183594 19.0190447,23.4399402 18.6762695,23.6831055 C18.3334944,23.9262707 18.0771493,24.258787 17.9072266,24.6806641 C17.7783197,25.0380877 17.7138672,25.6738236 17.7138672,26.5878906 L17.7138672,29.7607422 C17.7138672,30.2353539 17.6069347,30.5971667 17.3930664,30.8461914 C17.1791981,31.0952161 16.8818378,31.2197266 16.5009766,31.2197266 C15.709957,31.2197266 15.3144531,30.7334033 15.3144531,29.7607422 L15.3144531,19.3544922 C15.3144531,18.8681616 15.418456,18.5034192 15.6264648,18.2602539 C15.8344737,18.0170886 16.1259747,17.8955078 16.5009766,17.8955078 C16.8818378,17.8955078 17.1791981,18.0185535 17.3930664,18.2646484 C17.6069347,18.5107434 17.7138672,18.874021 17.7138672,19.3544922 Z"
         id=".h"
         fill="#FFFFFF" />
      <path
         d="M28.2558594,24.7636719 L26.7441406,24.7636719 L26.7441406,22.53125 L24.5,22.53125 L24.5,20.9960938 L26.7441406,20.9960938 L26.7441406,18.7519531 L28.2558594,18.7519531 L28.2558594,20.9960938 L30.5117188,20.9960938 L30.5117188,22.53125 L28.2558594,22.53125 L28.2558594,24.7636719 Z M35.2519531,24.7636719 L33.7402344,24.7636719 L33.7402344,22.53125 L31.4960938,22.53125 L31.4960938,20.9960938 L33.7402344,20.9960938 L33.7402344,18.7519531 L35.2519531,18.7519531 L35.2519531,20.9960938 L37.5078125,20.9960938 L37.5078125,22.53125 L35.2519531,22.53125 L35.2519531,24.7636719 Z"
         id="++"
         fill="#FFFFFF" />
    </g>
  </g>
</svg>

<svg xmlns="http://www.w3.org/2000/svg" xmlns:xlink="http://www.w3.org/1999/xlink" width="48" height="48"><g paint-order="markers stroke fill"><rect rx="2" ry="1.905" y="4" x="6" height="40" width="36" fill="#8bc34a"/><path d="M42 17.242A40 40 0 0 1 23.494 44H40c1.108 0 2-.85 2-1.904z" opacity=".15" fill="url(#a)"/></g><defs><linearGradient xlink:href="#b" id="a" x1="32.747" y1="44" x2="32.747" y2="17.242" gradientUnits="userSpaceOnUse"/><linearGradient id="b"><stop offset="0"/><stop offset="1" stop-opacity="0"/></linearGradient></defs><g fill="#FFF" fill-rule="evenodd"><path d="M11.324 31.22c-.363 0-.677-.117-.94-.352-.264-.234-.396-.562-.396-.984 0-.358.126-.665.378-.923s.563-.387.932-.387c.369 0 .684.128.945.383.26.254.39.564.39.927 0 .416-.13.742-.39.98a1.32 1.32 0 0 1-.919.356zm6.39-11.866v3.56c.305-.352.602-.63.892-.835.29-.205.61-.359.962-.461.352-.103.73-.154 1.134-.154.61 0 1.15.129 1.622.387a2.76 2.76 0 0 1 1.112 1.125c.17.287.284.607.342.962.059.354.088.763.088 1.226v4.597c0 .48-.11.843-.33 1.09-.22.246-.51.369-.874.369-.79 0-1.186-.487-1.186-1.46V25.71c0-.768-.115-1.358-.343-1.771-.229-.413-.662-.62-1.301-.62a1.95 1.95 0 0 0-1.156.365c-.343.243-.599.576-.769.998-.129.357-.193.993-.193 1.907v3.173c0 .474-.107.836-.32 1.085-.215.25-.512.374-.893.374-.791 0-1.187-.487-1.187-1.46V19.355c0-.486.104-.85.312-1.094.208-.243.5-.364.875-.364.38 0 .678.123.892.369.214.246.32.609.32 1.09zM28.256 24.764h-1.512V22.53H24.5v-1.535h2.244v-2.244h1.512v2.244h2.256v1.535h-2.256v2.233zm6.996 0H33.74V22.53h-2.244v-1.535h2.244v-2.244h1.512v2.244h2.256v1.535h-2.256v2.233z"/></g></svg>
